X:631
T:Mist in the Bog
T:Part 1 of the Siege of Ennis
M:2/4
L:1/8
K:D
|:"D"f2 f3/2e/|"G"dB Bd|"D"Ad d/c/d/e/|"A7"fe ea|"D"f2 f3/2e/|
"G"dB Bd|"A"Aa af|"D"ed d3/2e/:||:"D"fd "G"ed|"D"fd "G"ed/e/|"D"fa af|
"E7"ed "A7"e3/2e/|"D"fd "G"ed|"D"fd "G"ed/e/|\
"D"fa "A7"af|1 "D"ed d3/2e/:|2 "D"ed d||
